X:1
T:Pipe Scale March
C:Original chanter study
S:Public domain or original as noted in notes.md
M:2/4
L:1/8
Q:1/4=96
K:Amix
H:A mixolydian starter arrangement for Great Highland Bagpipe. Refs #1
A B d e | f e d B | G A B d | e2 A2 |
A B d f | a f e d | B d e f | A4 |
f a f e | d f e d | B d B A | G2 A2 |
A B d e | f e d B | G A B d | A4 |]
